X: 30976
T: Oyster Wife's Rant, The
R: reel
M: 4/4
K: Bdorian
fefg a2gf|e2 ec eAAe|fefg a2gf|ec c/c/c B2Be:|
fBfe fBBf|eAec eAAe|fBfe fBBf|ecac B2Be|
fBfe fBBf|eAec eAAe|fefg a2gf|ec c/c/c B2Be||

